src/rounded/icons/fi-rr-soap.svg

<svg id="Layer_1" height="512" viewBox="0 0 24 24" width="512" xmlns="http://www.w3.org/2000/svg" data-name="Layer 1"><path d="m17 7.964v-.964a3 3 0 0 0 -2-2.816v-2.184h4a1 1 0 0 0 0-2h-7a3 3 0 0 0 -3 3v1.184a3 3 0 0 0 -2 2.816v.964a8.943 8.943 0 0 0 -5 8.036v2a6.006 6.006 0 0 0 6 6h8a6.006 6.006 0 0 0 6-6v-2a8.943 8.943 0 0 0 -5-8.036zm-6-4.964a1 1 0 0 1 1-1h1v2h-2zm-2 4a1 1 0 0 1 1-1h4a1 1 0 0 1 1 1v1h-6zm11 11a4 4 0 0 1 -4 4h-8a4 4 0 0 1 -4-4v-2a6.968 6.968 0 0 1 3.394-6h9.212a6.968 6.968 0 0 1 3.394 6zm-5-4h-6a3 3 0 0 0 0 6h6a3 3 0 0 0 0-6zm0 4h-6a1 1 0 0 1 0-2h6a1 1 0 0 1 0 2z"/></svg>

<svg id="Layer_1" data-name="Layer 1" xmlns="http://www.w3.org/2000/svg" viewBox="0 0 24 24"><path d="M17,7.964V7a3,3,0,0,0-2-2.816V2h4a1,1,0,0,0,0-2H12A3,3,0,0,0,9,3V4.184A3,3,0,0,0,7,7v.964A8.943,8.943,0,0,0,2,16v2a6.006,6.006,0,0,0,6,6h8a6.006,6.006,0,0,0,6-6V16A8.943,8.943,0,0,0,17,7.964ZM11,3a1,1,0,0,1,1-1h1V4H11ZM9,7a1,1,0,0,1,1-1h4a1,1,0,0,1,1,1V8H9ZM20,18a4,4,0,0,1-4,4H8a4,4,0,0,1-4-4V16a6.968,6.968,0,0,1,3.394-6h9.212A6.968,6.968,0,0,1,20,16Zm-5-4H9a3,3,0,0,0,0,6h6a3,3,0,0,0,0-6Zm0,4H9a1,1,0,0,1,0-2h6a1,1,0,0,1,0,2Z"/></svg>
